dhis-2/dhis-support/dhis-support-system/src/main/resources/SVGs/lactation_negative.svg

<?xml version="1.0" encoding="UTF-8" standalone="no"?>
<!-- Created with Inkscape (http://www.inkscape.org/) -->
<svg id="svg8" xmlns:rdf="http://www.w3.org/1999/02/22-rdf-syntax-ns#" xmlns="http://www.w3.org/2000/svg" xmlns:osb="http://www.openswatchbook.org/uri/2009/osb" height="48" width="48" version="1.1" xmlns:cc="http://creativecommons.org/ns#" viewBox="0 0 12.7 12.7" xmlns:dc="http://purl.org/dc/elements/1.1/">
 <title id="title4753">UIO-icon</title>
 <metadata id="metadata5">
  <rdf:RDF>
   <cc:Work rdf:about="">
    <dc:format>image/svg+xml</dc:format>
    <dc:type rdf:resource="http://purl.org/dc/dcmitype/StillImage"/>
    <dc:title>UIO-icon</dc:title>
    <dc:creator>
     <cc:Agent>
      <dc:title>Joaquín Urbano</dc:title>
     </cc:Agent>
    </dc:creator>
    <dc:rights>
     <cc:Agent>
      <dc:title>GPL</dc:title>
     </cc:Agent>
    </dc:rights>
   </cc:Work>
  </rdf:RDF>
 </metadata>
 <g id="layer1" fill="#333" transform="translate(0,-284.3)">
  <path id="rect879" d="m0 0v48h48v-48zm21.688 4c3.5827 0.00046639 6.4878 2.9056 6.4883 6.4883 0.00087018 3.5836-2.9047 6.4878-6.4883 6.4883-3.5846 0.00087043-6.4911-2.9037-6.4902-6.4883 0-3.5843 2.906-6.4899 6.49-6.489zm4.9355 14.186c4.1956-0.054752 4.0528 1.1486 6.1953 3.7148 2.9032 3.4838 6.2818 7.4346 6.2227 9.9199-0.029327 1.2324-0.028665 2.4701-1.2676 3.709-1.067 1.1985-3.1098 3.1786-7.4336 7.4336-3.452 2.8898-6.6726-2.333-3.6973-5.0723 1.2185-1.1218 2.0703-1.8535 2.0703-1.8535-3.2043 0.66954-6.7912-3.0772-8.2773-7.1797-0.25057-0.65272-1.5927-1.0761-2.7109-0.71289-0.99809 0.32418-1.8176 1.3287-1.5254 2.5059l0.88086 2.2988c0.76067 1.9625 0.28878 2.2714-0.083984 2.2891 0.83012 0.61297 1.3427 1.1804 1.9355 1.7539 4.0469 4.0449-1.0593 8.0656-3.1055 6.5234-3.8176-3.6141-5.3014-6.6852-6.0566-8.2773-0.63177-1.4425-0.81957-2.54-0.81055-3.7676 0.018305-2.4892 1.7185-4.7837 4.2988-8.4219 1.5223-1.9308 2.3283-3.7148 6.1953-3.7148 2.6889-0.13605 5.931-1.1484 7.1699-1.1484zm1.7168 6.9727c-2.8272-0.00053442-5.1194 2.2977-5.1191 5.1328-0.00023157 2.8351 2.2919 5.1333 5.1191 5.1328 2.8272 0.00053481 5.1194-2.2977 5.1191-5.1328 0.00023157-2.8351-2.2919-5.1333-5.1191-5.1328z" fill-rule="evenodd" transform="matrix(.26458 0 0 .26458 0 284.3)"/>
 </g>
</svg>

<svg width="48" height="48" viewBox="0 0 48 48" fill="none" xmlns="http://www.w3.org/2000/svg">
<path fill-rule="evenodd" clip-rule="evenodd" d="M0 0V47.9994H47.9994V0H0ZM21.6877 3.99995C25.2704 4.00042 28.1754 6.90551 28.1759 10.4882C28.1768 14.0717 25.2713 16.9759 21.6877 16.9764C18.1032 16.9773 15.1967 14.0727 15.1976 10.4882C15.1976 6.90391 18.1036 3.99835 21.6875 3.99925L21.6877 3.99995ZM26.6232 18.1858C30.8187 18.131 30.6759 19.3344 32.8184 21.9005C35.7216 25.3843 39.1001 29.335 39.041 31.8203C39.0117 33.0527 39.0123 34.2904 37.7734 35.5293C36.7064 36.7277 34.6637 38.7078 30.3399 42.9628C26.888 45.8525 23.6674 40.6298 26.6427 37.8905C27.8612 36.7687 28.7129 36.037 28.7129 36.037C25.5087 36.7066 21.9218 32.9599 20.4357 28.8574C20.1852 28.2047 18.8431 27.7814 17.7249 28.1446C16.7268 28.4687 15.9073 29.4732 16.1995 30.6504L17.0803 32.9492C17.841 34.9117 17.3691 35.2206 16.9964 35.2383C17.8265 35.8512 18.339 36.4187 18.9318 36.9921C22.9787 41.037 17.8726 45.0576 15.8264 43.5155C12.0088 39.9014 10.525 36.8303 9.76985 35.2383C9.13809 33.7958 8.95029 32.6983 8.95931 31.4707C8.97762 28.9815 10.6778 26.6871 13.2581 23.0489C14.7803 21.1181 15.5863 19.3342 19.4533 19.3342C22.1421 19.1981 25.3842 18.1858 26.6231 18.1858H26.6232ZM28.3399 25.1584C25.5128 25.1579 23.2206 27.4561 23.2209 30.2911C23.2207 33.1262 25.5128 35.4244 28.3399 35.4239C31.1671 35.4244 33.4593 33.1262 33.459 30.2911C33.4592 27.4561 31.1671 25.1579 28.3399 25.1584Z" fill="#333333"/>
</svg>
